public/cloud-icons/azure/networking/nginxaas.svg

<?xml version="1.0" encoding="UTF-8" standalone="no"?>
<!-- Generated by Microsoft Visio, SVG Export NGINXaaS.svg Page-1 -->

<svg
   xmlns:dc="http://purl.org/dc/elements/1.1/"
   xmlns:cc="http://creativecommons.org/ns#"
   xmlns:rdf="http://www.w3.org/1999/02/22-rdf-syntax-ns#"
   xmlns:svg="http://www.w3.org/2000/svg"
   xmlns="http://www.w3.org/2000/svg"
   xmlns:sodipodi="http://sodipodi.sourceforge.net/DTD/sodipodi-0.dtd"
   xmlns:inkscape="http://www.inkscape.org/namespaces/inkscape"
   width="0.70861495in"
   height="0.78742409in"
   viewBox="0 0 51.020236 56.694532"
   xml:space="preserve"
   class="st5"
   version="1.1"
   id="svg33"
   sodipodi:docname="NGINXaaS.svg"
   style="font-size:12px;overflow:visible;color-interpolation-filters:sRGB;fill:none;fill-rule:evenodd;stroke-linecap:square;stroke-miterlimit:3"
   inkscape:version="0.92.5 (2060ec1f9f, 2020-04-08)"><metadata
   id="metadata39"><rdf:RDF><cc:Work
       rdf:about=""><dc:format>image/svg+xml</dc:format><dc:type
         rdf:resource="http://purl.org/dc/dcmitype/StillImage" /></cc:Work></rdf:RDF></metadata><defs
   id="defs37" /><sodipodi:namedview
   pagecolor="#ffffff"
   bordercolor="#666666"
   borderopacity="1"
   objecttolerance="10"
   gridtolerance="10"
   guidetolerance="10"
   inkscape:pageopacity="0"
   inkscape:pageshadow="2"
   inkscape:window-width="640"
   inkscape:window-height="480"
   id="namedview35"
   showgrid="false"
   inkscape:zoom="1.7635102"
   inkscape:cx="34.015948"
   inkscape:cy="21.556355"
   inkscape:window-x="0"
   inkscape:window-y="0"
   inkscape:window-maximized="0"
   inkscape:current-layer="svg33" />
	<style
   type="text/css"
   id="style2">
	<![CDATA[
		.st1 {fill:#999999;stroke:none;stroke-linecap:butt;stroke-width:9.65909}
		.st2 {fill:#009639}
		.st3 {stroke:none;stroke-linecap:butt;stroke-width:9.65909}
		.st4 {fill:#ffffff}
		.st5 {fill:none;fill-rule:evenodd;font-size:12px;overflow:visible;stroke-linecap:square;stroke-miterlimit:3}
	]]>
	</style>

	<g
   id="g31"
   transform="translate(-9.6590627,-9.6567291)">
		<title
   id="title4">Page-1</title>
		<g
   id="group18924-1"
   transform="translate(9.65923,-34.0157)">
			<title
   id="title6">NGINXaaS.18924</title>
			<g
   id="group18925-2">
				<title
   id="title8"> NGINX-hex-source-RGB-02</title>
				<g
   id="shape18926-3"
   transform="translate(47.1613,-4.40665)">
					<title
   id="title10">Sheet.18926</title>
					<path
   d="M 1.14,99.51 H 1.51 V 98.7 h 0.3 a 0.835383,0.816542 0 0 1 0.410844,0.06693 0.515569,0.503941 0 0 1 0.195755,0.468508 L 2.41,99.4 2.42,99.47 a 0.127281,0.12441 0 0 1 0.00644,0.02599 C 2.43,99.5 2.43,99.5 2.44,99.51 H 2.78 L 2.77,99.49 A 0.240867,0.235435 0 0 1 2.7538885,99.385275 C 2.74,99.32 2.74,99.27 2.74,99.23 V 99.08 A 0.597738,0.584257 -180 0 0 2.625608,98.760312 0.532486,0.520477 -180 0 0 2.260682,98.56031 0.90144,0.881109 -180 0 0 2.56519,98.463459 0.456762,0.44646 -180 0 0 2.769807,98.057944 0.515569,0.503941 -180 0 0 2.445965,97.538255 1.61115,1.57482 -180 0 0 1.88,97.46 H 1.14 Z M 2.2,98.4 A 0.957025,0.935441 0 0 1 1.847963,98.44567 L 1.51,98.45 V 97.7 h 0.32 a 0.930441,0.909456 0 0 1 0.444678,0.08032 0.317397,0.310239 0 0 1 0.138559,0.299215 0.322231,0.314963 0 0 1 -0.2167,0.320475 z m 1.07,-1.23 a 1.85927,1.81734 -180 0 0 -1.36,-0.54 1.9131552,1.87 -180 1 0 0,3.74 1.91486,1.87167 -180 0 0 1.36,-3.2 z M 3.08,97.36 A 1.56604,1.53072 0 0 1 3.56,98.5 1.64338,1.60631 0 0 1 0.75,99.64 1.62163,1.58505 0 0 1 0.27,98.5 1.64821,1.61104 0 0 1 1.91,96.88 1.56765,1.5323 0 0 1 3.08,97.36 Z"
   class="st1"
   id="path12"
   inkscape:connector-curvature="0"
   style="fill:#999999;stroke:none;stroke-width:9.65909004;stroke-linecap:butt" />
				</g>
				<g
   id="shape18927-5">
					<title
   id="title15">Sheet.18927</title>
					<path
   d="m 0.4,86.19 a 2.92988,2.8638 -180 0 0 1.1,1.07 l 22.52,12.71 a 2.95486,2.88821 -180 0 0 2.99,0 L 49.53,87.26 a 2.95324,2.88664 -180 0 0 1.49,-2.53 v -25.42 0 A 2.95405,2.88742 -180 0 0 49.53,56.78 L 27.01,44.07 a 2.95083,2.88428 -180 0 0 -2.99,0 L 1.5,56.78 A 2.95244,2.88585 -180 0 0 0,59.31 v 25.42 a 2.93552,2.86931 -180 0 0 0.39,1.46 z"
   class="st2"
   id="path17"
   inkscape:connector-curvature="0"
   style="fill:#009639" />
					<path
   d="m 0.4,86.19 a 2.92988,2.8638 -180 0 0 1.1,1.07 l 22.52,12.71 a 2.95486,2.88821 -180 0 0 2.99,0 L 49.53,87.26 a 2.95324,2.88664 -180 0 0 1.49,-2.53 v -25.42 0 A 2.95405,2.88742 -180 0 0 49.53,56.78 L 27.01,44.07 a 2.95083,2.88428 -180 0 0 -2.99,0 L 1.5,56.78 A 2.95244,2.88585 -180 0 0 0,59.31 v 25.42 a 2.93552,2.86931 -180 0 0 0.39,1.46"
   class="st3"
   id="path19"
   inkscape:connector-curvature="0"
   style="stroke:none;stroke-width:9.65909004;stroke-linecap:butt" />
				</g>
				<g
   id="shape18928-8"
   transform="translate(6.51631,-18.6973)">
					<title
   id="title22">Sheet.18928</title>
					<path
   d="m 14.64,99.02 a 4.01661,3.92602 -180 0 0 3.08,1.35 2.35712,2.30396 -180 0 0 2.56,-2.15 V 83 a 2.20325,2.15356 -180 0 0 -2.19,-2.15 h -0.07 a 2.26367,2.21262 -180 0 0 -2.25,2.21 v 10.82 a 0.0596127,0.0582682 0 0 1 -0.104725,0.03701 L 5.65,82.2 A 4.02144,3.93074 -180 0 0 2.57,80.85 2.35631,2.30317 -180 0 0 0,83 v 15.22 a 2.20245,2.15277 -180 0 0 2.2,2.15 H 2.26 A 2.26367,2.21262 -180 0 0 4.52,98.16 V 87.34 A 0.0612238,0.059843 0 0 1 4.627142,87.3022 Z M 37.68,89.31 H 33.05 A 0.0531681,0.0519689 0 0 1 32.99683,89.25724 L 33,84.74 a 1.95,1.9060187 -180 0 0 -3.9,0 v 4.33 a 0.252146,0.246459 0 0 1 -0.25134,0.244884 L 24.22,89.31 a 1.9495,1.90553 -180 0 0 0,3.81 h 4.83 a 0.0531681,0.0519689 0 0 1 0.05397,0.05197 L 29.1,97.7 a 1.95,1.9060187 -180 0 0 3.9,0 v -4.33 a 0.250534,0.244884 0 0 1 0.250534,-0.244096 L 37.68,93.12 a 1.9495,1.90553 -180 1 0 0,-3.81 z"
   class="st4"
   id="path24"
   inkscape:connector-curvature="0"
   style="fill:#ffffff" />
					<path
   d="m 14.64,99.02 a 4.01661,3.92602 -180 0 0 3.08,1.35 2.35712,2.30396 -180 0 0 2.56,-2.15 V 83 a 2.20325,2.15356 -180 0 0 -2.19,-2.15 h -0.07 a 2.26367,2.21262 -180 0 0 -2.25,2.21 v 10.82 a 0.0596127,0.0582682 0 0 1 -0.104725,0.03701 L 5.65,82.2 A 4.02144,3.93074 -180 0 0 2.57,80.85 2.35631,2.30317 -180 0 0 0,83 v 15.22 a 2.20245,2.15277 -180 0 0 2.2,2.15 H 2.26 A 2.26367,2.21262 -180 0 0 4.52,98.16 V 87.34 A 0.0612238,0.059843 0 0 1 4.627142,87.3022 L 14.64,99.02 M 37.68,89.31 H 33.05 A 0.0531681,0.0519689 0 0 1 32.99683,89.25724 L 33,84.74 a 1.95,1.9060187 -180 0 0 -3.9,0 v 4.33 a 0.252146,0.246459 0 0 1 -0.25134,0.244884 L 24.22,89.31 a 1.9495,1.90553 -180 0 0 0,3.81 h 4.83 a 0.0531681,0.0519689 0 0 1 0.05397,0.05197 L 29.1,97.7 a 1.95,1.9060187 -180 0 0 3.9,0 v -4.33 a 0.250534,0.244884 0 0 1 0.250534,-0.244096 L 37.68,93.12 a 1.9495,1.90553 -180 1 0 0,-3.81"
   class="st3"
   id="path26"
   inkscape:connector-curvature="0"
   style="stroke:none;stroke-width:9.65909004;stroke-linecap:butt" />
				</g>
			</g>
		</g>
	</g>
</svg>

<svg xmlns="http://www.w3.org/2000/svg" xml:space="preserve" width="68.027" height="75.593" style="font-size:12px;overflow:visible;color-interpolation-filters:sRGB;fill-rule:evenodd;stroke-linecap:square;stroke-miterlimit:3" viewBox="0 0 51.02 56.695"><g transform="translate(-9.66 -9.657)"><title>Page-1</title><g transform="translate(9.66 -34.016)"><title>NGINXaaS.18924</title><title> NGINX-hex-source-RGB-02</title><g transform="translate(47.161 -4.407)"><title>Sheet.18926</title><path d="M1.14 99.51h.37v-.81h.3a.835.817 0 0 1 .41.067.516.504 0 0 1 .197.468l-.007.165.01.07a.127.124 0 0 1 .006.026l.014.014h.34l-.01-.02a.24.235 0 0 1-.016-.105c-.014-.065-.014-.115-.014-.155v-.15a.598.584-180 0 0-.114-.32.532.52-180 0 0-.365-.2.901.881-180 0 0 .304-.097.457.446-180 0 0 .205-.405.516.504-180 0 0-.324-.52 1.611 1.575-180 0 0-.566-.078h-.74ZM2.2 98.4a.957.935 0 0 1-.352.046l-.338.004v-.75h.32a.93.91 0 0 1 .445.08.317.31 0 0 1 .138.3.322.315 0 0 1-.216.32zm1.07-1.23a1.86 1.817-180 0 0-1.36-.54 1.913 1.87-180 1 0 0 3.74 1.915 1.872-180 0 0 1.36-3.2m-.19.19a1.566 1.53 0 0 1 .48 1.14 1.643 1.606 0 0 1-2.81 1.14 1.622 1.585 0 0 1-.48-1.14 1.648 1.611 0 0 1 1.64-1.62 1.568 1.532 0 0 1 1.17.48" style="fill:#999;stroke:none;stroke-width:9.65909004;stroke-linecap:butt"/></g><title>Sheet.18927</title><path d="M.4 86.19a2.93 2.864-180 0 0 1.1 1.07l22.52 12.71a2.955 2.888-180 0 0 2.99 0l22.52-12.71a2.953 2.887-180 0 0 1.49-2.53V59.31a2.954 2.887-180 0 0-1.49-2.53L27.01 44.07a2.95 2.884-180 0 0-2.99 0L1.5 56.78A2.952 2.886-180 0 0 0 59.31v25.42a2.936 2.87-180 0 0 .39 1.46z" style="fill:#009639"/><path d="M.4 86.19a2.93 2.864-180 0 0 1.1 1.07l22.52 12.71a2.955 2.888-180 0 0 2.99 0l22.52-12.71a2.953 2.887-180 0 0 1.49-2.53V59.31a2.954 2.887-180 0 0-1.49-2.53L27.01 44.07a2.95 2.884-180 0 0-2.99 0L1.5 56.78A2.952 2.886-180 0 0 0 59.31v25.42a2.936 2.87-180 0 0 .39 1.46" style="stroke:none;stroke-width:9.65909004;stroke-linecap:butt"/><g transform="translate(6.516 -18.697)"><title>Sheet.18928</title><path d="M14.64 99.02a4.017 3.926-180 0 0 3.08 1.35 2.357 2.304-180 0 0 2.56-2.15V83a2.203 2.154-180 0 0-2.19-2.15h-.07a2.264 2.213-180 0 0-2.25 2.21v10.82a.06.058 0 0 1-.105.037L5.65 82.2a4.021 3.93-180 0 0-3.08-1.35A2.356 2.303-180 0 0 0 83v15.22a2.202 2.153-180 0 0 2.2 2.15h.06a2.264 2.213-180 0 0 2.26-2.21V87.34a.061.06 0 0 1 .107-.038Zm23.04-9.71h-4.63a.053.052 0 0 1-.053-.053L33 84.74a1.95 1.906-180 0 0-3.9 0v4.33a.252.246 0 0 1-.251.245l-4.629-.005a1.95 1.906-180 0 0 0 3.81h4.83a.053.052 0 0 1 .054.052L29.1 97.7a1.95 1.906-180 0 0 3.9 0v-4.33a.25.245 0 0 1 .25-.244l4.43-.006a1.95 1.906-180 1 0 0-3.81" style="fill:#fff"/><path d="M14.64 99.02a4.017 3.926-180 0 0 3.08 1.35 2.357 2.304-180 0 0 2.56-2.15V83a2.203 2.154-180 0 0-2.19-2.15h-.07a2.264 2.213-180 0 0-2.25 2.21v10.82a.06.058 0 0 1-.105.037L5.65 82.2a4.021 3.93-180 0 0-3.08-1.35A2.356 2.303-180 0 0 0 83v15.22a2.202 2.153-180 0 0 2.2 2.15h.06a2.264 2.213-180 0 0 2.26-2.21V87.34a.061.06 0 0 1 .107-.038zm23.04-9.71h-4.63a.053.052 0 0 1-.053-.053L33 84.74a1.95 1.906-180 0 0-3.9 0v4.33a.252.246 0 0 1-.251.245l-4.629-.005a1.95 1.906-180 0 0 0 3.81h4.83a.053.052 0 0 1 .054.052L29.1 97.7a1.95 1.906-180 0 0 3.9 0v-4.33a.25.245 0 0 1 .25-.244l4.43-.006a1.95 1.906-180 1 0 0-3.81" style="stroke:none;stroke-width:9.65909004;stroke-linecap:butt"/></g></g></g></svg>
